assets/Lab coat/Flat/lab_coat_flat.svg

<svg width="32" height="32" viewBox="0 0 32 32" fill="none" xmlns="http://www.w3.org/2000/svg">
<path d="M30.722 19.9905L30.7215 19.9895L24.2015 7.43949L24.197 7.43085L24.1922 7.4224C23.5365 6.27205 22.3039 5.5 20.8778 5.5H11.5178C9.93686 5.5 8.57345 6.46846 8.00362 7.84966L1.69414 19.9894L1.69358 19.9905C1.25881 20.832 1.57916 21.8753 2.42794 22.314C2.42805 22.3141 2.42817 22.3142 2.42828 22.3142L4.71724 23.5037L4.71828 23.5042C5.55903 23.9386 6.60119 23.6192 7.04065 22.7721C7.0411 22.7713 7.04155 22.7704 7.04201 22.7695L7.51854 21.8708V28.8022C7.51854 29.758 8.29608 30.4984 9.23252 30.4984H22.7903C23.7365 30.4984 24.5103 29.7245 24.5103 28.7784V21.1427L25.3855 22.7733C25.8253 23.6195 26.8669 23.9384 27.7073 23.5042L27.7091 23.5033L29.9873 22.3142C29.9877 22.314 29.988 22.3139 29.9884 22.3137C30.8366 21.8747 31.1567 20.8318 30.722 19.9905Z" fill="white" stroke="#9B9B9B"/>
<path d="M12.7979 6H19.5979L16.1979 14.35L12.7979 6Z" fill="#00A6ED"/>
<path d="M21.7177 9.17L21.2077 7.24C21.0177 6.51 20.3577 6 19.5977 6L16.1977 14.35L12.7977 6C12.0377 6 11.3777 6.51 11.1877 7.24L10.6977 9.17C10.6477 9.35 10.7877 9.53 10.9677 9.53H12.0977C12.3577 9.53 12.4777 9.84 12.2977 10.02L11.2677 11.01C11.1477 11.12 11.1477 11.31 11.2677 11.42L16.2077 16.21L21.1477 11.42C21.2677 11.31 21.2677 11.12 21.1477 11.01L20.1177 10.02C19.9277 9.84 20.0577 9.53 20.3177 9.53H21.4477C21.6277 9.53 21.7577 9.35 21.7177 9.17Z" fill="#D3D3D3"/>
<path d="M15.75 30V9H16.75V30H15.75Z" fill="#00A6ED"/>
<path d="M14 24H9V23.8509C9 23.386 9.44239 23 9.99794 23H13.0021C13.5473 23 14 23.3772 14 23.8509V24Z" fill="#D3D3D3"/>
<path d="M23 24H18V23.8509C18 23.386 18.4424 23 18.9979 23H22.0021C22.5473 23 23 23.3772 23 23.8509V24V24Z" fill="#D3D3D3"/>
<path d="M21.6375 20.45H19.3625C18.6125 20.45 18 19.818 18 19.0441L18 16H23V19.0441C23 19.8309 22.3875 20.45 21.6375 20.45Z" fill="#D3D3D3"/>
</svg>

<svg xmlns="http://www.w3.org/2000/svg" width="32" height="32" fill="none"><path fill="#fff" stroke="#9B9B9B" d="m30.722 19.99-6.52-12.55-.005-.01-.005-.008A3.8 3.8 0 0 0 20.878 5.5h-9.36c-1.581 0-2.945.968-3.514 2.35l-6.31 12.14a1.724 1.724 0 0 0 .734 2.324l2.29 1.19c.841.435 1.883.115 2.323-.732l.001-.002.477-.9v6.932a1.7 1.7 0 0 0 1.714 1.696H22.79c.947 0 1.72-.774 1.72-1.72v-7.635l.875 1.63a1.724 1.724 0 0 0 2.322.731h.002l2.278-1.19h.001a1.724 1.724 0 0 0 .734-2.323Z"/><path fill="#00A6ED" d="M12.798 6h6.8l-3.4 8.35-3.4-8.35Z"/><path fill="#D3D3D3" d="m21.718 9.17-.51-1.93A1.66 1.66 0 0 0 19.598 6l-3.4 8.35-3.4-8.35c-.76 0-1.42.51-1.61 1.24l-.49 1.93c-.05.18.09.36.27.36h1.13c.26 0 .38.31.2.49l-1.03.99c-.12.11-.12.3 0 .41l4.94 4.79 4.94-4.79c.12-.11.12-.3 0-.41l-1.03-.99a.284.284 0 0 1 .2-.49h1.13c.18 0 .31-.18.27-.36Z"/><path fill="#00A6ED" d="M15.75 30V9h1v21h-1Z"/><path fill="#D3D3D3" d="M14 24H9v-.15c0-.464.442-.85.998-.85h3.004c.545 0 .998.377.998.85V24ZM23 24h-5v-.15c0-.464.442-.85.998-.85h3.004c.545 0 .998.377.998.85V24ZM21.637 20.45h-2.274c-.75 0-1.363-.632-1.363-1.406V16h5v3.044c0 .787-.613 1.406-1.363 1.406Z"/></svg>
